www/assets/icons/screen_search_desktop.svg

<svg width="24" height="24" viewBox="0 0 24 24" xmlns="http://www.w3.org/2000/svg" fill='currentColor'><path d="M20 18C21.1 18 21.99 17.1 21.99 16L22 6C22 4.89 21.1 4 20 4H4C2.89 4 2 4.89 2 6V16C2 17.1 2.89 18 4 18H0V20H24V18H20ZM4 16V6H20V16.01L4 16ZM9.0967 9.9531C9.0967 8.9261 9.9327 8.0891 10.9607 8.0891C11.9877 8.0891 12.8247 8.9261 12.8247 9.9531C12.8247 10.9801 11.9877 11.8171 10.9607 11.8171C9.9327 11.8171 9.0967 10.9801 9.0967 9.9531ZM16.1287 14.1891L13.6467 11.7071C13.9777 11.2021 14.1737 10.6001 14.1737 9.9531C14.1737 8.1811 12.7327 6.7401 10.9607 6.7401C9.1887 6.7401 7.7467 8.1811 7.7467 9.9531C7.7467 11.7251 9.1887 13.1671 10.9607 13.1671C11.5967 13.1671 12.1857 12.9751 12.6847 12.6561L15.1737 15.1441L16.1287 14.1891Z"/></svg>

<svg xmlns="http://www.w3.org/2000/svg" width="24" height="24" viewBox="0 0 24 24" fill='currentColor'><path d="M20 18c1.1 0 1.99-.9 1.99-2L22 6a2 2 0 0 0-2-2H4c-1.11 0-2 .89-2 2v10a2 2 0 0 0 2 2H0v2h24v-2zM4 16V6h16v10.01zm5.097-6.047c0-1.027.836-1.864 1.864-1.864 1.027 0 1.864.837 1.864 1.864a1.867 1.867 0 0 1-1.864 1.864 1.867 1.867 0 0 1-1.864-1.864m7.032 4.236-2.482-2.482a3.2 3.2 0 0 0 .527-1.754A3.216 3.216 0 0 0 10.96 6.74a3.217 3.217 0 0 0-3.214 3.213 3.22 3.22 0 0 0 3.214 3.214 3.2 3.2 0 0 0 1.724-.51l2.489 2.487z"/></svg>
